src/icons/solid/symbols/external-integration.svg

<svg width="24" height="24" viewBox="0 0 24 24" fill="none" xmlns="http://www.w3.org/2000/svg">
<g clip-path="url(#clip0_4549_401)">
<path d="M20.9727 6.30176C21.534 6.30187 22 6.79816 22 7.4043C21.9998 8.01023 21.5445 8.50575 20.9727 8.50586H20.8555V11.6367C20.8553 15.88 17.614 19.3405 13.5781 19.5059V21.7217C13.578 22.427 13.0275 23 12.3496 23H11.6289C10.9512 22.9998 10.4005 22.4269 10.4004 21.7217V19.5059C6.36452 19.3405 3.12326 15.88 3.12305 11.6367V8.50586H3.02734C2.46613 8.50574 2.00023 8.01023 2 7.4043C2 6.79815 2.4554 6.30187 3.02734 6.30176H20.9727Z" fill="#3C3B44"/>
<path d="M8.74805 1C9.33056 1.00014 9.80664 1.49641 9.80664 2.10254V4.6377C9.80642 5.24363 9.33043 5.73912 8.74805 5.73926C8.16555 5.73926 7.6887 5.24372 7.68848 4.6377V2.10254C7.68848 1.49633 8.16542 1 8.74805 1Z" fill="#3C3B44"/>
<path d="M15.1035 1C15.6861 1 16.1631 1.49633 16.1631 2.10254V4.6377C16.1629 5.24372 15.686 5.73926 15.1035 5.73926C14.5211 5.73912 14.0451 5.24363 14.0449 4.6377V2.10254C14.0449 1.49641 14.521 1.00014 15.1035 1Z" fill="#3C3B44"/>
</g>
<defs>
<clipPath id="clip0_4549_401">
<rect width="24" height="24" fill="white"/>
</clipPath>
</defs>
</svg>

<svg xmlns="http://www.w3.org/2000/svg" width="24" height="24" fill="none" viewBox="0 0 24 24"><g fill="currentColor" clip-path="url(#a)"><path d="M20.973 6.302c.561 0 1.027.496 1.027 1.102s-.456 1.102-1.027 1.102h-.117v3.13c0 4.244-3.242 7.704-7.278 7.87v2.216c0 .705-.55 1.278-1.228 1.278h-.721c-.678 0-1.229-.573-1.229-1.278v-2.216c-4.035-.166-7.277-3.626-7.277-7.87v-3.13h-.096C2.467 8.506 2 8.01 2 7.404s.455-1.102 1.027-1.102zM8.748 1c.583 0 1.059.496 1.059 1.103v2.535c0 .606-.477 1.101-1.059 1.101s-1.06-.495-1.06-1.101V2.103c0-.607.477-1.103 1.06-1.103m6.356 0c.582 0 1.06.496 1.06 1.103v2.535c-.001.606-.478 1.101-1.06 1.101s-1.059-.495-1.06-1.101V2.103c0-.607.477-1.103 1.06-1.103"/></g><defs><clipPath id="a"><path fill="currentColor" d="M0 0h24v24H0z"/></clipPath></defs></svg>
